X: 39496
T: Tatter Jack Walsh
R: jig
M: 6/8
K: Gmajor
A|:~d3 g/f/ed|cAB c/d/ce|dcA GE/F/G|ADD EFG|
Add g/f/ed|cAB c2 d|eag edc|AGE DFA:|
|:d^cd afd|~d3 afd|cBc gec|cef ge/f/g|
afd g/f/e d|cAB c2 d|eag edc|1 AGE DFA:|2 AGE D3||

